X:14
T:Harvest Home
R:hornpipe
M:4/4
L:1/8
K:D
|:"D"DAFA DAFA|"G"defe dcBA|"A"eBfB gBfB|"G"(3efe (3dcB "A"(3ABA (3GFE|
"D"DAFA DAFA|"G"defe dcBA|"A"eBfB gece|1 "D"d2f2 d4:|2 "D"d2f2 d2cd|
|:"A"eBB2 "D"fBB2|"G"gBfB "A"eBB2|eBfB gBfB|"G"(3efe (3dcB "A"(3ABA (3GF
E|
"D"DAFA DAFA|"G"defe "A"dcBA|eBfB gece|1 "D"d2f2 d2cd:|2 "D"d2f2 d4||
